public/static/images/common/feat-3.svg

<svg width="41" height="40" viewBox="0 0 41 40" fill="none" xmlns="http://www.w3.org/2000/svg">
<g id="fi_10184696" clip-path="url(#clip0_209_1606)">
<g id="Group">
<g id="Group_2">
<path id="Vector" d="M13.25 32.75C15.125 33.375 17.125 33.875 19.375 33.875C21.625 33.875 23.625 33.5 25.5 32.75" stroke="#676767" stroke-width="2" stroke-miterlimit="10" stroke-linecap="round" stroke-linejoin="round"/>
<path id="Vector_2" d="M34.125 22.125H37.25C38.375 22.125 39.25 23 39.25 24.125C39.25 25.25 38.375 26.125 37.25 26.125H36.75" stroke="#676767" stroke-width="2" stroke-miterlimit="10" stroke-linecap="round" stroke-linejoin="round"/>
<path id="Vector_3" d="M30.5 14.375C32.75 16.375 34.125 19.125 34.125 22.125C34.125 25.5 32.375 28.5 29.625 30.625L29.25 34.5C29.125 35.75 28.125 36.625 27 36.625H25.125C23.875 36.625 22.875 35.625 22.875 34.375V33.625C21.875 33.75 20.75 33.875 19.5 33.875C18.375 33.875 17.25 33.75 16.125 33.625V34.375C16.125 35.625 15.125 36.625 13.875 36.625H11.875C10.75 36.625 9.75001 35.75 9.62501 34.5L9.25001 30.625C7.62501 29.375 6.37501 27.875 5.62501 26.125H4.37501C3.25001 26.125 2.37501 25.25 2.25001 24.25L1.75001 20.25C1.62501 19 2.62501 17.875 3.87501 17.875H5.62501C6.37501 16.25 7.50001 14.875 9.00001 13.75C8.87501 11.875 7.87501 10.25 6.25001 9.375C7.12501 8.875 8.00001 8.625 9.00001 8.625C11 8.625 12.75 9.625 13.625 11.25" stroke="#676767" stroke-width="2" stroke-miterlimit="10" stroke-linecap="round" stroke-linejoin="round"/>
</g>
<path id="Vector_4" d="M11.5 17.5H12.5" stroke="#EA4D45" stroke-width="2" stroke-miterlimit="10" stroke-linecap="round" stroke-linejoin="round"/>
<path id="Vector_5" d="M22.5 13.75C25.3305 13.75 27.625 11.4555 27.625 8.625C27.625 5.79454 25.3305 3.5 22.5 3.5C19.6695 3.5 17.375 5.79454 17.375 8.625C17.375 11.4555 19.6695 13.75 22.5 13.75Z" stroke="#EA4D45" stroke-width="2" stroke-miterlimit="10" stroke-linecap="round" stroke-linejoin="round"/>
</g>
</g>
<defs>
<clipPath id="clip0_209_1606">
<rect width="40" height="40" fill="white" transform="translate(0.5)"/>
</clipPath>
</defs>
</svg>

<svg width="41" height="40" fill="none" xmlns="http://www.w3.org/2000/svg"><g stroke-width="2" stroke-miterlimit="10" stroke-linecap="round" stroke-linejoin="round" clip-path="url(#clip0_209_1606)"><g stroke="#676767"><path d="M13.25 32.75c1.875.625 3.875 1.125 6.125 1.125s4.25-.375 6.125-1.125m8.625-10.625h3.125c1.125 0 2 .875 2 2s-.875 2-2 2h-.5"/><path d="M30.5 14.375c2.25 2 3.625 4.75 3.625 7.75 0 3.375-1.75 6.375-4.5 8.5L29.25 34.5c-.125 1.25-1.125 2.125-2.25 2.125h-1.875c-1.25 0-2.25-1-2.25-2.25v-.75c-1 .125-2.125.25-3.375.25-1.125 0-2.25-.125-3.375-.25v.75c0 1.25-1 2.25-2.25 2.25h-2c-1.125 0-2.125-.875-2.25-2.125l-.375-3.875c-1.625-1.25-2.875-2.75-3.625-4.5h-1.25c-1.125 0-2-.875-2.125-1.875l-.5-4c-.125-1.25.875-2.375 2.125-2.375h1.75c.75-1.625 1.875-3 3.375-4.125-.125-1.875-1.125-3.5-2.75-4.375.875-.5 1.75-.75 2.75-.75 2 0 3.75 1 4.625 2.625"/></g><path d="M11.5 17.5h1m10-3.75a5.125 5.125 0 100-10.25 5.125 5.125 0 000 10.25z" stroke="#EA4D45"/></g><defs><clipPath id="clip0_209_1606"><path fill="#fff" transform="translate(.5)" d="M0 0h40v40H0z"/></clipPath></defs></svg>
